assets/images/logo.svg

<?xml version="1.0" encoding="UTF-8"?>
<svg width="219px" height="28px" viewBox="0 0 219 28" version="1.1" xmlns="http://www.w3.org/2000/svg" xmlns:xlink="http://www.w3.org/1999/xlink">
    <!-- Generator: Sketch 46.2 (44496) - http://www.bohemiancoding.com/sketch -->
    <title>AND GET A GOAT</title>
    <desc>Created with Sketch.</desc>
    <defs></defs>
    <g id="Page-1" stroke="none" stroke-width="1" fill="none" fill-rule="evenodd">
        <g id="Desktop" transform="translate(-62.000000, -64.000000)" fill="#FFFFFF">
            <g id="Group" transform="translate(62.000000, 64.000000)">
                <path d="M98.4833659,13.5277108 L88.0704501,13.5277108 L88.0704501,17.9807229 L93.5264188,17.9807229 L93.5264188,20.5783133 C91.8297456,22.0626506 89.667319,23.0409639 87.2720157,23.0409639 C82.2152642,23.0409639 78.1232877,18.9590361 78.1232877,13.9662651 C78.1232877,9.00722892 82.2152642,4.95903614 87.2720157,4.95903614 C90.332681,4.95903614 92.7945205,6.07228916 94.7906067,8.80481928 L98.2837573,5.19518072 C95.6223092,2.05783133 91.8297456,0 87.2720157,0 C79.3874755,0 73,6.24096386 73,13.9662651 C73,21.8939759 79.4207436,28 87.2720157,28 C91.2641879,28 95.4559687,26.313253 98.4833659,22.5349398 L98.4833659,13.5277108 Z M129.722114,14 C129.722114,21.7590361 123.334638,28 115.616438,28 C107.864971,28 101.477495,21.7927711 101.477495,14 C101.477495,6.13975904 107.864971,0 115.616438,0 C123.334638,0 129.722114,6.17349398 129.722114,14 Z M123.675042,12.9336593 C122.186272,11.4369543 120.567676,10.0898759 119.001707,8.67892186 C118.108141,7.8739124 117.336138,7.9975076 116.240329,7.76825491 C115.33502,7.57859643 114.13548,7.11527849 113.240174,7.32309343 C112.089781,7.58997157 111.145328,7.68731646 110.223274,8.41620002 C109.808567,8.74432888 107.660878,10.1546267 107.969026,10.8765102 C108.165833,11.3393906 110.284382,9.68890247 110.708875,9.45177469 C111.622883,8.94142494 112.854173,9.14967739 113.707073,9.57908868 C112.628878,10.7691027 111.929727,11.9129599 111.350833,13.4096649 C110.811519,14.8039938 110.05887,15.7743802 108.862375,16.6292653 C110.070179,17.1877406 111.124234,17.5583074 112.039329,18.5144749 C113.177979,19.7038326 114.316629,20.8929716 115.454843,22.0823293 C115.923482,20.8065643 116.177699,19.7992087 116.324053,18.4497241 C116.371461,18.0144065 117.142594,17.4333997 117.370932,17.0383326 C117.628847,16.5907648 117.34114,15.9117568 118.14685,15.844381 C118.765104,15.7925367 119.24853,15.8012868 119.862653,15.8870378 C120.310197,15.949601 121.31641,15.9196319 121.650002,16.1698849 C122.650561,16.9199874 121.940971,18.7185711 122.887599,19.3980165 C122.943705,18.6210074 123.035258,17.8461858 123.150297,17.0774893 C123.188354,16.8257051 123.564352,16.0395083 123.452357,15.8327871 C123.247069,15.4523764 122.53226,15.6400661 122.336106,15.1152787 C123.061354,15.3125935 123.684393,15.800193 124.057998,15.0037149 C124.380282,14.3161756 123.920125,13.5487916 123.675042,12.9336593 L123.675042,12.9336593 Z M145.823875,0.506024096 L158.399217,27.4939759 L152.74364,27.4939759 L150.2818,22.0963855 L137.373777,22.0963855 L134.878669,27.4939759 L129.223092,27.4939759 L141.798434,0.506024096 L145.823875,0.506024096 Z M139.336595,17.7445783 L148.252446,17.7445783 L143.827789,8.02891566 L139.336595,17.7445783 Z M175,0.539759036 L175,5.19518072 L167.64775,5.19518072 L167.64775,27.4939759 L162.424658,27.4939759 L162.424658,5.19518072 L155.072407,5.19518072 L155.072407,0.539759036 L175,0.539759036 Z M15.9269953,5.32100488 L19.8006966,5.32100488 L11.5410689,15.8820656 L11.5410689,27.7431961 L8.2596277,27.7431961 L8.2596277,15.8820656 L0,5.32100488 L3.87370136,5.32100488 L9.86033074,13.0572226 L15.9269953,5.32100488 Z M31.919086,5 C35.3766219,5 38.2551908,6.09675572 40.554879,8.29030007 C42.8545672,10.4838444 44.004394,13.2337588 44.004394,16.5401256 C44.004394,19.8464925 42.8438959,22.5830317 40.5228649,24.7498255 C38.2018339,26.9166193 35.2752444,28 31.7430087,28 C28.3708441,28 25.5616384,26.9166193 23.3153072,24.7498255 C21.068976,22.5830317 19.9458273,19.8678926 19.9458273,16.6043266 C19.9458273,13.2551589 21.0769795,10.4838444 23.3393177,8.29030007 C25.601656,6.09675572 28.4615502,5 31.919086,5 Z M32.0471423,8.04954641 C29.4860046,8.04954641 27.3811012,8.85205059 25.7323688,10.457083 C24.0836364,12.0621155 23.2592826,14.1111762 23.2592826,16.6043266 C23.2592826,19.0225755 24.0863042,21.034186 25.7403723,22.6392184 C27.3944404,24.2442509 29.4646623,25.0467551 31.9511001,25.0467551 C34.4482093,25.0467551 36.5317703,24.2282008 38.2018455,22.5910677 C39.8719207,20.9539346 40.7069457,18.915574 40.7069457,16.4759246 C40.7069457,14.1004766 39.8719207,12.1022412 38.2018455,10.4811584 C36.5317703,8.86007564 34.4802231,8.04954641 32.0471423,8.04954641 Z M64.7825869,5.32100488 L68,5.32100488 L68,18.0488486 C68,19.7715834 67.8746128,21.0716402 67.6238348,21.9490579 C67.3730567,22.8264757 67.0635906,23.5567545 66.695427,24.1399163 C66.3272635,24.723078 65.8764033,25.2447058 65.3428329,25.7048151 C63.5713794,27.234946 61.2557188,28 58.3957817,28 C55.4824876,28 53.1454846,27.240296 51.3847024,25.7208653 C50.8511321,25.2500558 50.4002719,24.723078 50.0321083,24.1399163 C49.6639448,23.5567545 49.3598143,22.8425257 49.1197076,21.9972087 C48.879601,21.1518916 48.7595494,19.8250846 48.7595494,18.0167481 L48.7595494,5.32100488 L51.9769625,5.32100488 L51.9769625,18.0488486 C51.9769625,20.1567912 52.2170656,21.6226988 52.6972789,22.4466155 C53.1774922,23.2705321 53.9084726,23.9312606 54.8902421,24.4288207 C55.8720115,24.9263807 57.0298418,25.175157 58.3637677,25.175157 C60.2632781,25.175157 61.8106089,24.6776044 63.0058065,23.6824843 C63.6354195,23.1474735 64.0889475,22.5161702 64.3664041,21.7885555 C64.6438607,21.0609408 64.7825869,19.8143843 64.7825869,18.0488486 L64.7825869,5.32100488 Z M196.891305,5 L199.87319,5 L199.87319,28 L196.650831,28 L196.650831,10.1037938 L189.757228,18.9942734 L189.164057,18.9942734 L182.206327,10.1037938 L182.206327,28 L179,28 L179,5 L182.013948,5 L189.468658,14.4502505 L196.891305,5 Z M205.998343,5 L218.695399,5 L218.695399,7.9305655 L209.204671,7.9305655 L209.204671,14.9441661 L218.374766,14.9441661 L218.374766,17.8911954 L209.204671,17.8911954 L209.204671,25.0365068 L219,25.0365068 L219,27.9670723 L205.998343,27.9670723 L205.998343,5 Z" id="AND-GET-A-GOAT"></path>
            </g>
        </g>
    </g>
</svg>

<svg width="219" height="28" xmlns="http://www.w3.org/2000/svg"><path d="M98.483 13.528H88.07v4.453h5.456v2.597c-1.696 1.485-3.859 2.463-6.254 2.463-5.057 0-9.149-4.082-9.149-9.075 0-4.959 4.092-9.007 9.149-9.007 3.06 0 5.523 1.113 7.519 3.846l3.493-3.61C95.622 2.058 91.83 0 87.272 0 79.387 0 73 6.241 73 13.966 73 21.894 79.42 28 87.272 28c3.992 0 8.184-1.687 11.211-5.465v-9.007zm31.24.472c0 7.759-6.388 14-14.107 14-7.751 0-14.139-6.207-14.139-14 0-7.86 6.388-14 14.14-14 7.718 0 14.105 6.173 14.105 14zm-6.048-1.066c-1.489-1.497-3.107-2.844-4.673-4.255-.894-.805-1.666-.681-2.762-.91-.905-.19-2.105-.654-3-.446-1.15.267-2.095.364-3.017 1.093-.414.328-2.562 1.739-2.254 2.46.197.463 2.315-1.187 2.74-1.424.914-.51 2.145-.302 2.998.127-1.078 1.19-1.777 2.334-2.356 3.83-.54 1.395-1.292 2.365-2.489 3.22 1.208.559 2.262.93 3.177 1.885l3.416 3.568c.468-1.275.723-2.283.87-3.632.046-.436.818-1.017 1.046-1.412.258-.447-.03-1.126.776-1.194a7.16 7.16 0 0 1 1.716.043c.447.063 1.453.033 1.787.283 1 .75.291 2.549 1.238 3.228.056-.777.147-1.552.262-2.32.038-.252.414-1.038.302-1.245-.205-.38-.92-.193-1.116-.718.725.198 1.348.685 1.722-.111.322-.688-.138-1.455-.383-2.07zM145.824.506l12.575 26.988h-5.655l-2.462-5.398h-12.908l-2.495 5.398h-5.656L141.798.506h4.026zm-6.487 17.239h8.915l-4.424-9.716-4.491 9.716zM175 .54v4.655h-7.352v22.299h-5.223V5.195h-7.353V.54H175zM15.927 5.32h3.874l-8.26 10.561v11.861H8.26v-11.86L0 5.32h3.874l5.986 7.736 6.067-7.736zM31.919 5c3.458 0 6.336 1.097 8.636 3.29 2.3 2.194 3.45 4.944 3.45 8.25s-1.161 6.043-3.482 8.21c-2.321 2.167-5.248 3.25-8.78 3.25-3.372 0-6.181-1.083-8.428-3.25-2.246-2.167-3.37-4.882-3.37-8.146 0-3.349 1.132-6.12 3.394-8.314C25.602 6.097 28.462 5 31.92 5zm.128 3.05c-2.561 0-4.666.802-6.315 2.407-1.648 1.605-2.473 3.654-2.473 6.147 0 2.419.827 4.43 2.481 6.035 1.654 1.605 3.725 2.408 6.211 2.408 2.497 0 4.58-.819 6.25-2.456s2.506-3.675 2.506-6.115c0-2.376-.835-4.374-2.505-5.995-1.67-1.62-3.722-2.431-6.155-2.431zM64.783 5.32H68v12.728c0 1.723-.125 3.023-.376 3.9-.25.877-.56 1.608-.929 2.19a6.975 6.975 0 0 1-1.352 1.566C63.57 27.235 61.256 28 58.396 28c-2.914 0-5.25-.76-7.011-2.28a7.298 7.298 0 0 1-1.353-1.58c-.368-.583-.672-1.297-.912-2.143-.24-.845-.36-2.172-.36-3.98V5.32h3.217v12.728c0 2.108.24 3.574.72 4.398.48.824 1.211 1.484 2.193 1.982.982.497 2.14.746 3.474.746 1.9 0 3.447-.497 4.642-1.493a4.624 4.624 0 0 0 1.36-1.893c.278-.728.417-1.975.417-3.74V5.32zM196.89 5h2.982v23h-3.222V10.104l-6.894 8.89h-.593l-6.958-8.89V28H179V5h3.014l7.455 9.45L196.89 5zm9.107 0h12.697v2.93h-9.49v7.014h9.17v2.947h-9.17v7.146H219v2.93h-13.002V5z" fill="#FFF" fill-rule="evenodd"/></svg>
